images/6604241.svg

<?xml version="1.0" encoding="UTF-8"?>
<svg xmlns="http://www.w3.org/2000/svg" xmlns:xlink="http://www.w3.org/1999/xlink" width="300pt" height="300pt" viewBox="0 0 300 300" version="1.1">
<defs>
<g>
<symbol overflow="visible" id="glyph0-0">
<path style="stroke:none;" d="M 0.453125 1.59375 L 0.453125 -6.34375 L 4.953125 -6.34375 L 4.953125 1.59375 Z M 0.953125 1.09375 L 4.453125 1.09375 L 4.453125 -5.84375 L 0.953125 -5.84375 Z M 0.953125 1.09375 "/>
</symbol>
<symbol overflow="visible" id="glyph0-1">
<path style="stroke:none;" d="M 3.546875 -5.953125 C 2.898438 -5.953125 2.382812 -5.710938 2 -5.234375 C 1.625 -4.753906 1.4375 -4.101562 1.4375 -3.28125 C 1.4375 -2.445312 1.625 -1.789062 2 -1.3125 C 2.382812 -0.832031 2.898438 -0.59375 3.546875 -0.59375 C 4.191406 -0.59375 4.703125 -0.832031 5.078125 -1.3125 C 5.453125 -1.789062 5.640625 -2.445312 5.640625 -3.28125 C 5.640625 -4.101562 5.453125 -4.753906 5.078125 -5.234375 C 4.703125 -5.710938 4.191406 -5.953125 3.546875 -5.953125 Z M 3.546875 -6.6875 C 4.460938 -6.6875 5.195312 -6.375 5.75 -5.75 C 6.300781 -5.132812 6.578125 -4.3125 6.578125 -3.28125 C 6.578125 -2.238281 6.300781 -1.410156 5.75 -0.796875 C 5.195312 -0.179688 4.460938 0.125 3.546875 0.125 C 2.617188 0.125 1.878906 -0.179688 1.328125 -0.796875 C 0.773438 -1.410156 0.5 -2.238281 0.5 -3.28125 C 0.5 -4.3125 0.773438 -5.132812 1.328125 -5.75 C 1.878906 -6.375 2.617188 -6.6875 3.546875 -6.6875 Z M 3.546875 -6.6875 "/>
</symbol>
<symbol overflow="visible" id="glyph0-2">
<path style="stroke:none;" d="M 0.890625 -6.5625 L 4.65625 -6.5625 L 4.65625 -5.8125 L 1.765625 -5.8125 L 1.765625 -3.875 L 4.375 -3.875 L 4.375 -3.140625 L 1.765625 -3.140625 L 1.765625 0 L 0.890625 0 Z M 0.890625 -6.5625 "/>
</symbol>
<symbol overflow="visible" id="glyph0-3">
<path style="stroke:none;" d="M 0.890625 -6.5625 L 1.765625 -6.5625 L 1.765625 -3.875 L 5 -3.875 L 5 -6.5625 L 5.890625 -6.5625 L 5.890625 0 L 5 0 L 5 -3.125 L 1.765625 -3.125 L 1.765625 0 L 0.890625 0 Z M 0.890625 -6.5625 "/>
</symbol>
</g>
</defs>
<g id="surface51565">
<rect x="0" y="0" width="300" height="300" style="fill:rgb(100%,100%,100%);fill-opacity:1;stroke:none;"/>
<path style="fill:none;stroke-width:1.2;stroke-linecap:butt;stroke-linejoin:miter;stroke:rgb(0%,0%,0%);stroke-opacity:1;stroke-miterlimit:10;" d="M 35.25 135.40625 L 55.792969 132.785156 "/>
<path style="fill:none;stroke-width:1.2;stroke-linecap:butt;stroke-linejoin:miter;stroke:rgb(0%,0%,0%);stroke-opacity:1;stroke-miterlimit:10;" d="M 58.039062 133.726562 L 62.039062 124.175781 "/>
<path style="fill:none;stroke-width:1.2;stroke-linecap:butt;stroke-linejoin:miter;stroke:rgb(100%,0%,0%);stroke-opacity:1;stroke-miterlimit:10;" d="M 62.039062 124.175781 L 66.039062 114.625 "/>
<path style="fill:none;stroke-width:1.2;stroke-linecap:butt;stroke-linejoin:miter;stroke:rgb(0%,0%,0%);stroke-opacity:1;stroke-miterlimit:10;" d="M 53.542969 131.84375 L 57.542969 122.292969 "/>
<path style="fill:none;stroke-width:1.2;stroke-linecap:butt;stroke-linejoin:miter;stroke:rgb(100%,0%,0%);stroke-opacity:1;stroke-miterlimit:10;" d="M 57.542969 122.292969 L 61.542969 112.742188 "/>
<path style="fill:none;stroke-width:1.2;stroke-linecap:butt;stroke-linejoin:miter;stroke:rgb(0%,0%,0%);stroke-opacity:1;stroke-miterlimit:10;" d="M 55.792969 132.785156 L 62.0625 141.023438 "/>
<path style="fill:none;stroke-width:1.2;stroke-linecap:butt;stroke-linejoin:miter;stroke:rgb(100%,0%,0%);stroke-opacity:1;stroke-miterlimit:10;" d="M 62.0625 141.023438 L 68.332031 149.261719 "/>
<path style=" stroke:none;fill-rule:nonzero;fill:rgb(100%,100%,100%);fill-opacity:1;" d="M 59.792969 108.183594 L 67.792969 108.183594 L 67.792969 119.183594 L 59.792969 119.183594 Z M 59.792969 108.183594 "/>
<g style="fill:rgb(100%,0%,0%);fill-opacity:1;">
  <use xlink:href="#glyph0-1" x="59.792969" y="116.84668"/>
</g>
<path style="fill:none;stroke-width:1.2;stroke-linecap:butt;stroke-linejoin:miter;stroke:rgb(100%,0%,0%);stroke-opacity:1;stroke-miterlimit:10;" d="M 68.332031 149.261719 L 78.601562 147.953125 "/>
<path style="fill:none;stroke-width:1.2;stroke-linecap:butt;stroke-linejoin:miter;stroke:rgb(0%,0%,0%);stroke-opacity:1;stroke-miterlimit:10;" d="M 78.601562 147.953125 L 88.875 146.640625 "/>
<path style=" stroke:none;fill-rule:nonzero;fill:rgb(100%,100%,100%);fill-opacity:1;" d="M 64.332031 143.761719 L 72.332031 143.761719 L 72.332031 154.761719 L 64.332031 154.761719 Z M 64.332031 143.761719 "/>
<g style="fill:rgb(100%,0%,0%);fill-opacity:1;">
  <use xlink:href="#glyph0-1" x="64.332031" y="152.424805"/>
</g>
<path style="fill:none;stroke-width:1.2;stroke-linecap:butt;stroke-linejoin:miter;stroke:rgb(0%,0%,0%);stroke-opacity:1;stroke-miterlimit:10;" d="M 88.875 146.640625 L 101.414062 163.121094 "/>
<path style="fill:none;stroke-width:1.2;stroke-linecap:butt;stroke-linejoin:miter;stroke:rgb(0%,0%,0%);stroke-opacity:1;stroke-miterlimit:10;" d="M 99.167969 162.179688 L 95.167969 171.726562 "/>
<path style="fill:none;stroke-width:1.2;stroke-linecap:butt;stroke-linejoin:miter;stroke:rgb(100%,0%,0%);stroke-opacity:1;stroke-miterlimit:10;" d="M 95.167969 171.726562 L 91.167969 181.277344 "/>
<path style="fill:none;stroke-width:1.2;stroke-linecap:butt;stroke-linejoin:miter;stroke:rgb(0%,0%,0%);stroke-opacity:1;stroke-miterlimit:10;" d="M 103.660156 164.058594 L 99.660156 173.609375 "/>
<path style="fill:none;stroke-width:1.2;stroke-linecap:butt;stroke-linejoin:miter;stroke:rgb(100%,0%,0%);stroke-opacity:1;stroke-miterlimit:10;" d="M 99.660156 173.609375 L 95.660156 183.160156 "/>
<path style="fill:none;stroke-width:1;stroke-linecap:butt;stroke-linejoin:miter;stroke:rgb(0%,0%,0%);stroke-opacity:1;stroke-miterlimit:10;" d="M 121.957031 160.496094 L 121.957031 160.496094 M 118.960938 160.355469 L 119.089844 161.386719 M 115.960938 160.210938 L 116.226562 162.28125 M 112.964844 160.066406 L 113.363281 163.171875 M 109.96875 159.925781 L 110.496094 164.0625 M 106.972656 159.78125 L 107.632812 164.953125 M 103.976562 159.640625 L 104.769531 165.84375 M 100.980469 159.496094 L 101.902344 166.734375 M 100.953125 159.496094 L 101.878906 166.742188 "/>
<path style=" stroke:none;fill-rule:nonzero;fill:rgb(100%,100%,100%);fill-opacity:1;" d="M 85.414062 176.71875 L 93.414062 176.71875 L 93.414062 187.71875 L 85.414062 187.71875 Z M 85.414062 176.71875 "/>
<g style="fill:rgb(100%,0%,0%);fill-opacity:1;">
  <use xlink:href="#glyph0-1" x="85.414062" y="185.381836"/>
</g>
<path style="fill:none;stroke-width:1.2;stroke-linecap:butt;stroke-linejoin:miter;stroke:rgb(0%,0%,0%);stroke-opacity:1;stroke-miterlimit:10;" d="M 121.957031 160.496094 L 122.417969 181.199219 "/>
<path style="fill:none;stroke-width:1.2;stroke-linecap:butt;stroke-linejoin:miter;stroke:rgb(0%,0%,0%);stroke-opacity:1;stroke-miterlimit:10;" d="M 121.957031 160.496094 L 118.367188 150.785156 "/>
<path style="fill:none;stroke-width:1.2;stroke-linecap:butt;stroke-linejoin:miter;stroke:rgb(100%,0%,0%);stroke-opacity:1;stroke-miterlimit:10;" d="M 118.367188 150.785156 L 114.78125 141.074219 "/>
<path style="fill:none;stroke-width:1.2;stroke-linecap:butt;stroke-linejoin:miter;stroke:rgb(0%,0%,0%);stroke-opacity:1;stroke-miterlimit:10;" d="M 141.503906 153.664062 L 121.957031 160.496094 "/>
<path style="fill:none;stroke-width:1.2;stroke-linecap:butt;stroke-linejoin:miter;stroke:rgb(0%,0%,0%);stroke-opacity:1;stroke-miterlimit:10;" d="M 122.417969 181.199219 L 142.246094 187.160156 "/>
<path style=" stroke:none;fill-rule:nonzero;fill:rgb(0%,0%,0%);fill-opacity:1;" d="M 154.042969 170.140625 L 139.246094 185.078125 L 145.25 189.242188 Z M 154.042969 170.140625 "/>
<path style="fill:none;stroke-width:1.2;stroke-linecap:butt;stroke-linejoin:miter;stroke:rgb(0%,0%,0%);stroke-opacity:1;stroke-miterlimit:10;" d="M 154.042969 170.140625 L 141.503906 153.664062 "/>
<path style="fill:none;stroke-width:1.2;stroke-linecap:butt;stroke-linejoin:miter;stroke:rgb(0%,0%,0%);stroke-opacity:1;stroke-miterlimit:10;" d="M 174.585938 167.519531 L 154.042969 170.140625 "/>
<path style="fill:none;stroke-width:1.2;stroke-linecap:butt;stroke-linejoin:miter;stroke:rgb(0%,0%,0%);stroke-opacity:1;stroke-miterlimit:10;" d="M 141.503906 153.664062 L 149.503906 134.5625 "/>
<path style="fill:none;stroke-width:1;stroke-linecap:butt;stroke-linejoin:miter;stroke:rgb(0%,0%,0%);stroke-opacity:1;stroke-miterlimit:10;" d="M 141.503906 153.664062 L 141.503906 153.664062 M 140.175781 150.972656 L 139.335938 151.589844 M 138.847656 148.28125 L 137.167969 149.515625 M 137.519531 145.589844 L 135 147.441406 M 136.191406 142.902344 L 132.832031 145.367188 M 134.867188 140.210938 L 130.660156 143.296875 M 133.539062 137.519531 L 128.492188 141.222656 M 132.210938 134.832031 L 126.324219 139.148438 M 132.199219 134.804688 L 126.304688 139.128906 "/>
<path style="fill:none;stroke-width:1.2;stroke-linecap:butt;stroke-linejoin:miter;stroke:rgb(0%,0%,0%);stroke-opacity:1;stroke-miterlimit:10;" d="M 149.503906 134.5625 L 170.042969 131.941406 "/>
<path style="fill:none;stroke-width:1.2;stroke-linecap:butt;stroke-linejoin:miter;stroke:rgb(0%,0%,0%);stroke-opacity:1;stroke-miterlimit:10;" d="M 170.042969 131.941406 L 182.585938 148.417969 "/>
<path style="fill:none;stroke-width:1;stroke-linecap:butt;stroke-linejoin:miter;stroke:rgb(0%,0%,0%);stroke-opacity:1;stroke-miterlimit:10;" d="M 170.042969 131.941406 L 170.042969 131.941406 M 171.667969 129.417969 L 170.703125 129.015625 M 173.289062 126.894531 L 171.363281 126.085938 M 174.910156 124.371094 L 172.027344 123.160156 M 176.53125 121.847656 L 172.6875 120.234375 M 178.15625 119.324219 L 173.347656 117.308594 M 179.777344 116.800781 L 174.007812 114.382812 M 181.398438 114.273438 L 174.667969 111.457031 M 181.414062 114.253906 L 174.671875 111.429688 "/>
<path style="fill:none;stroke-width:1.2;stroke-linecap:butt;stroke-linejoin:miter;stroke:rgb(0%,0%,0%);stroke-opacity:1;stroke-miterlimit:10;" d="M 182.585938 148.417969 L 174.585938 167.519531 "/>
<path style="fill:none;stroke-width:1;stroke-linecap:butt;stroke-linejoin:miter;stroke:rgb(0%,0%,0%);stroke-opacity:1;stroke-miterlimit:10;" d="M 182.585938 148.417969 L 182.585938 148.417969 M 184.191406 145.882812 L 182.539062 145.417969 M 185.796875 143.351562 L 182.488281 142.417969 M 187.402344 140.816406 L 182.441406 139.417969 M 189.007812 138.28125 L 182.394531 136.421875 M 189.417969 137.640625 L 182.382812 135.65625 "/>
<path style="fill:none;stroke-width:1.2;stroke-linecap:butt;stroke-linejoin:miter;stroke:rgb(0%,0%,0%);stroke-opacity:1;stroke-miterlimit:10;" d="M 203.125 145.796875 L 182.585938 148.417969 "/>
<path style="fill:none;stroke-width:1;stroke-linecap:butt;stroke-linejoin:miter;stroke:rgb(0%,0%,0%);stroke-opacity:1;stroke-miterlimit:10;" d="M 174.585938 167.519531 L 174.585938 167.519531 M 175.960938 170.183594 L 176.789062 169.554688 M 177.332031 172.851562 L 178.992188 171.589844 M 178.707031 175.519531 L 181.199219 173.625 M 180.082031 178.183594 L 183.402344 175.660156 M 181.457031 180.851562 L 185.605469 177.695312 M 182.832031 183.519531 L 187.808594 179.730469 M 184.207031 186.183594 L 190.015625 181.765625 M 184.21875 186.210938 L 190.035156 181.785156 "/>
<path style="fill:none;stroke-width:1.2;stroke-linecap:butt;stroke-linejoin:miter;stroke:rgb(0%,0%,0%);stroke-opacity:1;stroke-miterlimit:10;" d="M 187.125 183.996094 L 207.667969 181.375 "/>
<path style="fill:none;stroke-width:1.2;stroke-linecap:butt;stroke-linejoin:miter;stroke:rgb(0%,0%,0%);stroke-opacity:1;stroke-miterlimit:10;" d="M 207.667969 181.375 L 215.667969 162.273438 "/>
<path style="fill:none;stroke-width:1.2;stroke-linecap:butt;stroke-linejoin:miter;stroke:rgb(0%,0%,0%);stroke-opacity:1;stroke-miterlimit:10;" d="M 215.667969 162.273438 L 236.207031 159.652344 "/>
<path style="fill:none;stroke-width:1.2;stroke-linecap:butt;stroke-linejoin:miter;stroke:rgb(0%,0%,0%);stroke-opacity:1;stroke-miterlimit:10;" d="M 217.105469 157.179688 L 233.539062 155.082031 "/>
<path style="fill:none;stroke-width:1.2;stroke-linecap:butt;stroke-linejoin:miter;stroke:rgb(0%,0%,0%);stroke-opacity:1;stroke-miterlimit:10;" d="M 203.125 145.796875 L 215.667969 162.273438 "/>
<path style="fill:none;stroke-width:1.2;stroke-linecap:butt;stroke-linejoin:miter;stroke:rgb(0%,0%,0%);stroke-opacity:1;stroke-miterlimit:10;" d="M 236.207031 159.652344 L 244.207031 140.554688 "/>
<path style="fill:none;stroke-width:1.2;stroke-linecap:butt;stroke-linejoin:miter;stroke:rgb(0%,0%,0%);stroke-opacity:1;stroke-miterlimit:10;" d="M 244.515625 142.96875 L 254.789062 141.660156 "/>
<path style="fill:none;stroke-width:1.2;stroke-linecap:butt;stroke-linejoin:miter;stroke:rgb(100%,0%,0%);stroke-opacity:1;stroke-miterlimit:10;" d="M 254.789062 141.660156 L 265.058594 140.347656 "/>
<path style="fill:none;stroke-width:1.2;stroke-linecap:butt;stroke-linejoin:miter;stroke:rgb(0%,0%,0%);stroke-opacity:1;stroke-miterlimit:10;" d="M 243.898438 138.136719 L 254.171875 136.824219 "/>
<path style="fill:none;stroke-width:1.2;stroke-linecap:butt;stroke-linejoin:miter;stroke:rgb(100%,0%,0%);stroke-opacity:1;stroke-miterlimit:10;" d="M 254.171875 136.824219 L 264.441406 135.515625 "/>
<path style="fill:none;stroke-width:1.2;stroke-linecap:butt;stroke-linejoin:miter;stroke:rgb(0%,0%,0%);stroke-opacity:1;stroke-miterlimit:10;" d="M 244.207031 140.554688 L 231.667969 124.074219 "/>
<path style=" stroke:none;fill-rule:nonzero;fill:rgb(100%,100%,100%);fill-opacity:1;" d="M 260.75 132.429688 L 268.75 132.429688 L 268.75 143.429688 L 260.75 143.429688 Z M 260.75 132.429688 "/>
<g style="fill:rgb(100%,0%,0%);fill-opacity:1;">
  <use xlink:href="#glyph0-1" x="260.75" y="141.092773"/>
</g>
<path style="fill:none;stroke-width:1.2;stroke-linecap:butt;stroke-linejoin:miter;stroke:rgb(0%,0%,0%);stroke-opacity:1;stroke-miterlimit:10;" d="M 231.667969 124.074219 L 211.125 126.695312 "/>
<path style="fill:none;stroke-width:1.2;stroke-linecap:butt;stroke-linejoin:miter;stroke:rgb(0%,0%,0%);stroke-opacity:1;stroke-miterlimit:10;" d="M 230.230469 129.171875 L 213.796875 131.269531 "/>
<path style="fill:none;stroke-width:1.2;stroke-linecap:butt;stroke-linejoin:miter;stroke:rgb(0%,0%,0%);stroke-opacity:1;stroke-miterlimit:10;" d="M 211.125 126.695312 L 203.125 145.796875 "/>
<path style="fill:none;stroke-width:1;stroke-linecap:butt;stroke-linejoin:miter;stroke:rgb(0%,0%,0%);stroke-opacity:1;stroke-miterlimit:10;" d="M 203.125 145.796875 L 203.125 145.796875 M 202.417969 142.882812 L 200.9375 143.746094 M 201.710938 139.964844 L 198.746094 141.699219 M 201.003906 137.050781 L 196.554688 139.648438 M 200.296875 134.136719 L 194.363281 137.597656 M 200.117188 133.394531 L 193.804688 137.078125 "/>
<path style=" stroke:none;fill-rule:nonzero;fill:rgb(100%,100%,100%);fill-opacity:1;" d="M 182.898438 131.148438 L 188.898438 131.148438 L 188.898438 142.148438 L 182.898438 142.148438 Z M 182.898438 131.148438 "/>
<g style="fill:rgb(20%,80%,80%);fill-opacity:1;">
  <use xlink:href="#glyph0-2" x="182.898438" y="139.811523"/>
</g>
<path style=" stroke:none;fill-rule:nonzero;fill:rgb(100%,100%,100%);fill-opacity:1;" d="M 171.042969 107.339844 L 186.042969 107.339844 L 186.042969 118.339844 L 171.042969 118.339844 Z M 171.042969 107.339844 "/>
<g style="fill:rgb(100%,0%,0%);fill-opacity:1;">
  <use xlink:href="#glyph0-1" x="171.042969" y="116.00293"/>
  <use xlink:href="#glyph0-3" x="178.384766" y="116.00293"/>
</g>
<path style=" stroke:none;fill-rule:nonzero;fill:rgb(100%,100%,100%);fill-opacity:1;" d="M 99.78125 135.574219 L 114.78125 135.574219 L 114.78125 146.574219 L 99.78125 146.574219 Z M 99.78125 135.574219 "/>
<g style="fill:rgb(100%,0%,0%);fill-opacity:1;">
  <use xlink:href="#glyph0-3" x="99.78125" y="144.237305"/>
  <use xlink:href="#glyph0-1" x="106.795898" y="144.237305"/>
</g>
</g>
</svg>

<svg xmlns="http://www.w3.org/2000/svg" xmlns:xlink="http://www.w3.org/1999/xlink" width="300pt" height="300pt" viewBox="0 0 300 300"><defs><symbol overflow="visible"><path d="M.453 1.594v-7.938h4.5v7.938zm.5-.5h3.5v-6.938h-3.5zm0 0"/></symbol><symbol overflow="visible" id="a"><path d="M3.547-5.953c-.65 0-1.164.242-1.547.72-.375.48-.563 1.13-.563 1.952 0 .835.188 1.49.563 1.967.383.48.898.72 1.547.72.644 0 1.156-.24 1.53-.72.376-.476.564-1.132.564-1.968 0-.822-.187-1.474-.562-1.954-.375-.477-.887-.72-1.53-.72zm0-.734c.914 0 1.648.312 2.203.937.55.617.828 1.438.828 2.47 0 1.042-.277 1.87-.828 2.483-.555.617-1.29.922-2.203.922-.93 0-1.668-.305-2.22-.922C.774-1.41.5-2.237.5-3.28c0-1.033.273-1.853.828-2.47.55-.625 1.29-.938 2.22-.938zm0 0"/></symbol><symbol overflow="visible" id="b"><path d="M.89-6.563h3.766v.75h-2.89v1.938h2.61v.734h-2.61V0H.89zm0 0"/></symbol><symbol overflow="visible" id="c"><path d="M.89-6.563h.876v2.688H5v-2.688h.89V0H5v-3.125H1.766V0H.89zm0 0"/></symbol></defs><g><path fill="#fff" d="M0 0h300v300H0z"/><path d="M35.25 135.406l20.543-2.62M58.04 133.727l4-9.55" stroke-width="1.2" stroke="#000" stroke-miterlimit="10" fill="none"/><path d="M62.04 124.176l4-9.55" stroke-width="1.2" stroke="#f00" stroke-miterlimit="10" fill="none"/><path d="M53.543 131.844l4-9.55" stroke-width="1.2" stroke="#000" stroke-miterlimit="10" fill="none"/><path d="M57.543 122.293l4-9.55" stroke-width="1.2" stroke="#f00" stroke-miterlimit="10" fill="none"/><path d="M55.793 132.785l6.27 8.238" stroke-width="1.2" stroke="#000" stroke-miterlimit="10" fill="none"/><path d="M62.063 141.023l6.27 8.24" stroke-width="1.2" stroke="#f00" stroke-miterlimit="10" fill="none"/><path d="M59.793 108.184h8v11h-8zm0 0" fill="#fff"/><use xlink:href="#a" x="59.793" y="116.847" fill="#f00"/><path d="M68.332 149.262l10.27-1.31" stroke-width="1.2" stroke="#f00" stroke-miterlimit="10" fill="none"/><path d="M78.602 147.953l10.273-1.312" stroke-width="1.2" stroke="#000" stroke-miterlimit="10" fill="none"/><path d="M64.332 143.762h8v11h-8zm0 0" fill="#fff"/><use xlink:href="#a" x="64.332" y="152.425" fill="#f00"/><path d="M88.875 146.64l12.54 16.48M99.168 162.18l-4 9.547" stroke-width="1.2" stroke="#000" stroke-miterlimit="10" fill="none"/><path d="M95.168 171.727l-4 9.55" stroke-width="1.2" stroke="#f00" stroke-miterlimit="10" fill="none"/><path d="M103.66 164.06l-4 9.55" stroke-width="1.2" stroke="#000" stroke-miterlimit="10" fill="none"/><path d="M99.66 173.61l-4 9.55" stroke-width="1.2" stroke="#f00" stroke-miterlimit="10" fill="none"/><path d="M121.957 160.496m-2.996-.14l.13 1.03m-3.13-1.175l.267 2.07m-3.262-2.214l.398 3.106m-3.394-3.246l.526 4.137m-3.523-4.282l.66 5.173m-3.656-5.312l.793 6.204m-3.79-6.348l.922 7.238m-.95-7.238l.927 7.246" stroke="#000" stroke-miterlimit="10" fill="none"/><path d="M85.414 176.72h8v11h-8zm0 0" fill="#fff"/><use xlink:href="#a" x="85.414" y="185.382" fill="#f00"/><path d="M121.957 160.496l.46 20.703M121.957 160.496l-3.59-9.71" stroke-width="1.2" stroke="#000" stroke-miterlimit="10" fill="none"/><path d="M118.367 150.785l-3.586-9.71" stroke-width="1.2" stroke="#f00" stroke-miterlimit="10" fill="none"/><path d="M141.504 153.664l-19.547 6.832M122.418 181.2l19.828 5.96" stroke-width="1.2" stroke="#000" stroke-miterlimit="10" fill="none"/><path d="M154.043 170.14l-14.797 14.938 6.004 4.164zm0 0"/><path d="M154.043 170.14l-12.54-16.476M174.586 167.52l-20.543 2.62M141.504 153.664l8-19.1" stroke-width="1.2" stroke="#000" stroke-miterlimit="10" fill="none"/><path d="M141.504 153.664m-1.328-2.69l-.84.616m-.488-3.31l-1.68 1.236m.352-3.926l-2.52 1.85m1.19-4.538l-3.358 2.465m2.035-5.156l-4.207 3.087m2.88-5.777l-5.048 3.703m3.72-6.39l-5.888 4.315m5.875-4.343l-5.895 4.324" stroke="#000" stroke-miterlimit="10" fill="none"/><path d="M149.504 134.563l20.54-2.622M170.043 131.94l12.543 16.478" stroke-width="1.2" stroke="#000" stroke-miterlimit="10" fill="none"/><path d="M170.043 131.94m1.625-2.522l-.965-.402m2.586-2.12l-1.927-.81m3.547-1.715l-2.883-1.21m4.504-1.312l-3.843-1.614m5.47-.91l-4.81-2.015m6.43-.51l-5.77-2.417m7.39-.11l-6.73-2.816m6.747 2.797l-6.742-2.824" stroke="#000" stroke-miterlimit="10" fill="none"/><path d="M182.586 148.418l-8 19.102" stroke-width="1.2" stroke="#000" stroke-miterlimit="10" fill="none"/><path d="M182.586 148.418m1.605-2.535l-1.65-.465m3.257-2.066l-3.31-.934m4.915-1.602l-4.96-1.398m6.566-1.137l-6.613-1.858m7.023 1.22l-7.035-1.986" stroke="#000" stroke-miterlimit="10" fill="none"/><path d="M203.125 145.797l-20.54 2.62" stroke-width="1.2" stroke="#000" stroke-miterlimit="10" fill="none"/><path d="M174.586 167.52m1.375 2.664l.83-.63m.542 3.298l1.66-1.262m-.285 3.93l2.492-1.895m-1.118 4.56l3.32-2.525m-1.945 5.192l4.148-3.157m-2.773 5.825l4.977-3.79m-3.603 6.454l5.81-4.418m-5.798 4.445l5.815-4.425" stroke="#000" stroke-miterlimit="10" fill="none"/><path d="M187.125 183.996l20.543-2.62M207.668 181.375l8-19.102M215.668 162.273l20.54-2.62M217.105 157.18l16.434-2.098M203.125 145.797l12.543 16.476M236.207 159.652l8-19.097M244.516 142.97l10.273-1.31" stroke-width="1.2" stroke="#000" stroke-miterlimit="10" fill="none"/><path d="M254.79 141.66l10.27-1.312" stroke-width="1.2" stroke="#f00" stroke-miterlimit="10" fill="none"/><path d="M243.898 138.137l10.274-1.313" stroke-width="1.2" stroke="#000" stroke-miterlimit="10" fill="none"/><path d="M254.172 136.824l10.27-1.308" stroke-width="1.2" stroke="#f00" stroke-miterlimit="10" fill="none"/><path d="M244.207 140.555l-12.54-16.48" stroke-width="1.2" stroke="#000" stroke-miterlimit="10" fill="none"/><path d="M260.75 132.43h8v11h-8zm0 0" fill="#fff"/><use xlink:href="#a" x="260.75" y="141.093" fill="#f00"/><path d="M231.668 124.074l-20.543 2.62M230.23 129.172l-16.433 2.098M211.125 126.695l-8 19.102" stroke-width="1.2" stroke="#000" stroke-miterlimit="10" fill="none"/><path d="M203.125 145.797m-.707-2.914l-1.48.863m.773-3.78l-2.964 1.733m2.258-4.65l-4.45 2.598m3.743-5.51l-5.934 3.46m5.754-4.203l-6.312 3.683" stroke="#000" stroke-miterlimit="10" fill="none"/><path d="M182.898 131.148h6v11h-6zm0 0" fill="#fff"/><use xlink:href="#b" x="182.898" y="139.812" fill="#3cc"/><path d="M171.043 107.34h15v11h-15zm0 0" fill="#fff"/><g fill="#f00"><use xlink:href="#a" x="171.043" y="116.003"/><use xlink:href="#c" x="178.385" y="116.003"/></g><path d="M99.78 135.574h15v11h-15zm0 0" fill="#fff"/><g fill="#f00"><use xlink:href="#c" x="99.781" y="144.237"/><use xlink:href="#a" x="106.796" y="144.237"/></g></g></svg>
